OFDR/img/documents/tracktor.svg

<svg width="78" height="67" viewBox="0 0 78 67" fill="none" xmlns="http://www.w3.org/2000/svg">
<g id="tracktor">
<path id="Shape" fill-rule="evenodd" clip-rule="evenodd" d="M24.6825 20C25.8254 20 26.8412 20.8 27.0952 21.8667L28.873 28.5333C29.127 29.3333 28.9999 30.1333 28.4921 30.9333C28.1111 31.6 27.3492 32 26.5873 32H15.5397C14.1429 32 13 30.8 13 29.3333V22.6667C13 21.2 14.1429 20 15.5397 20H24.6825ZM15.5397 22.6667V29.3333H26.5873L24.6825 22.6667H15.5397Z" fill="#86ADEF"/>
<path id="Path" d="M18.5 59C17.6 59 17 59.6 17 60.5C17 61.4 17.6 62 18.5 62C19.4 62 20 61.4 20 60.5C20 59.6 19.4 59 18.5 59Z" fill="#86ADEF"/>
<path id="Path_2" d="M24.5 59C23.6 59 23 59.6 23 60.5C23 61.4 23.6 62 24.5 62C25.4 62 26 61.4 26 60.5C26 59.6 25.4 59 24.5 59Z" fill="#86ADEF"/>
<path id="Path_3" d="M31.5 59C30.6 59 30 59.6 30 60.5C30 61.4 30.6 62 31.5 62C32.4 62 33 61.4 33 60.5C33 59.6 32.4 59 31.5 59Z" fill="#86ADEF"/>
<path id="Path_4" d="M37.5 59C36.6 59 36 59.6 36 60.5C36 61.4 36.6 62 37.5 62C38.4 62 39 61.4 39 60.5C39 59.6 38.4 59 37.5 59Z" fill="#86ADEF"/>
<path id="Path_5" d="M44.5 59C43.6 59 43 59.6 43 60.5C43 61.4 43.6 62 44.5 62C45.4 62 46 61.4 46 60.5C46 59.6 45.4 59 44.5 59Z" fill="#86ADEF"/>
<path id="Shape_2" fill-rule="evenodd" clip-rule="evenodd" d="M54.1411 54.0496H55.8999C59.5401 54.0496 62.4002 56.8986 62.4002 60.5248C62.4002 64.151 59.5401 67 55.9001 67H6.50005C2.85995 67 0 64.151 0 60.5248C0 56.8986 2.85995 54.0496 6.50005 54.0498V39.8044V37.2143V17.7889C6.50005 14.9399 8.84005 12.6088 11.7 12.6088H15.6002V10.0187C15.6002 7.16969 17.9402 4.83864 20.8001 4.83864C23.6601 4.83864 26.0001 7.16969 26.0001 10.0187V12.6088H29.3801C31.8501 12.6088 33.9301 14.2923 34.4501 16.6234L37.0689 28.2977L62.2701 1.73042C64.22 -0.341571 67.47 -0.600627 69.6801 1.21246C70.8501 2.11893 71.6301 3.54351 71.76 5.09755C71.824 5.86303 71.7295 6.59695 71.4937 7.28412C71.4978 7.33132 71.4999 7.37943 71.4999 7.4286V24.3749C75.1766 24.9963 78 28.2018 78 32.0342C78 33.7177 77.4801 35.4014 76.44 36.6963C76.18 37.0848 75.7899 37.2143 75.3999 37.2143C75.1404 37.2143 74.8809 37.0851 74.6213 36.9559L74.6199 36.9552C74.0998 36.5667 73.9699 35.6601 74.3599 35.1422C75.0099 34.2357 75.3999 33.1996 75.3999 32.0341C75.3999 29.1851 73.0599 26.854 70.2 26.854C67.34 26.854 65.0001 29.1851 65.0001 32.0341C65.0001 33.1996 65.3901 34.2357 66.0401 35.1422C66.4301 35.6603 66.3002 36.5667 65.7801 36.9552C65.2599 37.3438 64.35 37.2141 63.96 36.6962C62.9199 35.4012 62.4 33.7176 62.4 32.0341C62.4 28.2017 65.2234 24.9962 68.9 24.3747V10.7233L43.3346 37.2141H55.64C56.81 37.2141 57.72 37.7321 58.3701 38.7682C58.89 39.6748 59.02 40.8403 58.5 41.7468L54.1411 54.0496ZM11.7309 64.4099H50.6691C49.8693 63.3339 49.4001 61.9933 49.4001 60.5248C49.4001 59.0564 49.8693 57.7157 50.6691 56.6397H11.7309C12.5307 57.7157 12.9999 59.0564 12.9999 60.5248C12.9999 61.9933 12.5307 63.3339 11.7309 64.4099ZM64.22 3.67297C65.2601 2.63689 66.9501 2.50744 68.12 3.41391C68.7701 3.80242 69.1601 4.57944 69.1601 5.35645C69.1601 6.13347 68.9001 6.91049 68.3801 7.42845L39.78 37.2143H39.1299L38.1988 33.3353L37.7266 31.2296L64.22 3.67297ZM20.8001 7.4286C19.3701 7.4286 18.2001 8.59412 18.2001 10.0187H18.2002V12.6088H23.4002V10.0187C23.4002 8.59412 22.2302 7.4286 20.8001 7.4286ZM9.09995 17.7889C9.09995 16.3643 10.2699 15.1988 11.7 15.1988H15.6H26H29.25C30.5499 15.1988 31.59 16.1052 31.85 17.2708L36.4001 37.2141H9.1001V17.7889H9.09995ZM37.6999 50.1645H9.09995V54.0499H50.9599C51.2198 54.0499 51.3499 53.9203 51.4798 53.7909L56.1598 40.711C56.2898 40.4521 56.1598 40.1931 56.1598 40.1931C56.1598 40.0635 55.8999 39.934 55.6399 39.934H9.09995V42.3945H29.8999C30.6799 42.3945 31.1998 42.9125 31.1998 43.6895C31.1998 44.4665 30.6799 44.9845 29.8999 44.9845H9.09995V47.5746H37.6999C38.4799 47.5746 38.9998 48.0925 38.9998 48.8696C38.9998 49.6466 38.4799 50.1645 37.6999 50.1645ZM2.60005 60.5248C2.60005 58.3232 4.29 56.6397 6.50005 56.6397C8.7101 56.6397 10.4001 58.3232 10.4001 60.5248C10.4001 62.7264 8.7101 64.4099 6.50005 64.4099C4.29 64.4099 2.60005 62.7263 2.60005 60.5248ZM52 60.5248C52 62.7264 53.6899 64.4099 55.9 64.4099C58.11 64.4099 59.7999 62.7264 59.7999 60.5248C59.7999 58.3232 58.11 56.6397 55.9 56.6397C53.6899 56.6397 52 58.3232 52 60.5248Z" fill="#86ADEF"/>
<path id="Shape_3" fill-rule="evenodd" clip-rule="evenodd" d="M76.6885 40.6002L77.9526 45.7359C78.079 46.1211 77.9526 46.6347 77.5735 46.8913L73.7812 50.7432C73.5284 50.8717 73.2756 51 72.8963 51H72.6435L66.3228 49.7161C65.8171 49.5878 65.4378 49.2026 65.3115 48.8174L64.0474 43.6817C63.921 43.2965 64.0474 42.783 64.4266 42.5261L69.4831 37.3904C69.8623 37.0053 70.4944 36.8768 71 37.1336L76.0564 39.7015C76.4357 39.8299 76.6885 40.2151 76.6885 40.6002ZM67.5869 47.2765L72.5169 48.3037L75.2981 45.4791L74.2868 41.6273L70.6208 39.7014L66.702 43.6815L67.5869 47.2765Z" fill="#86ADEF"/>
</g>
</svg>

<svg width="78" height="67" fill="none" xmlns="http://www.w3.org/2000/svg"><g fill="#86ADEF"><path fill-rule="evenodd" clip-rule="evenodd" d="M24.683 20c1.142 0 2.158.8 2.412 1.867l1.778 6.666c.254.8.127 1.6-.38 2.4C28.11 31.6 27.348 32 26.586 32H15.54C14.143 32 13 30.8 13 29.333v-6.666C13 21.2 14.143 20 15.54 20h9.143zm-9.143 2.667v6.666h11.047l-1.904-6.666H15.54z"/><path d="M18.5 59c-.9 0-1.5.6-1.5 1.5s.6 1.5 1.5 1.5 1.5-.6 1.5-1.5-.6-1.5-1.5-1.5zm6 0c-.9 0-1.5.6-1.5 1.5s.6 1.5 1.5 1.5 1.5-.6 1.5-1.5-.6-1.5-1.5-1.5zm7 0c-.9 0-1.5.6-1.5 1.5s.6 1.5 1.5 1.5 1.5-.6 1.5-1.5-.6-1.5-1.5-1.5zm6 0c-.9 0-1.5.6-1.5 1.5s.6 1.5 1.5 1.5 1.5-.6 1.5-1.5-.6-1.5-1.5-1.5zm7 0c-.9 0-1.5.6-1.5 1.5s.6 1.5 1.5 1.5 1.5-.6 1.5-1.5-.6-1.5-1.5-1.5z"/><path fill-rule="evenodd" clip-rule="evenodd" d="M54.141 54.05H55.9c3.64 0 6.5 2.849 6.5 6.475C62.4 64.15 59.54 67 55.9 67H6.5C2.86 67 0 64.151 0 60.525c0-3.626 2.86-6.475 6.5-6.475V17.789c0-2.85 2.34-5.18 5.2-5.18h3.9v-2.59c0-2.85 2.34-5.18 5.2-5.18 2.86 0 5.2 2.33 5.2 5.18v2.59h3.38c2.47 0 4.55 1.683 5.07 4.014l2.619 11.675L62.27 1.73c1.95-2.072 5.2-2.33 7.41-.518 1.17.907 1.95 2.332 2.08 3.886a5.318 5.318 0 01-.266 2.186c.004.047.006.095.006.145v16.946c3.677.621 6.5 3.827 6.5 7.66 0 1.683-.52 3.366-1.56 4.661-.26.389-.65.518-1.04.518-.26 0-.52-.129-.779-.258h-.001c-.52-.39-.65-1.296-.26-1.814.65-.906 1.04-1.942 1.04-3.108 0-2.849-2.34-5.18-5.2-5.18-2.86 0-5.2 2.331-5.2 5.18 0 1.166.39 2.202 1.04 3.108.39.518.26 1.425-.26 1.813-.52.389-1.43.26-1.82-.259-1.04-1.295-1.56-2.978-1.56-4.662 0-3.832 2.823-7.038 6.5-7.66v-13.65l-25.565 26.49H55.64c1.17 0 2.08.518 2.73 1.554.52.907.65 2.072.13 2.979L54.141 54.05zm-42.41 10.36h38.938a6.474 6.474 0 01-1.269-3.885c0-1.469.47-2.81 1.27-3.885H11.73A6.475 6.475 0 0113 60.525c0 1.468-.47 2.809-1.27 3.885zM64.22 3.673c1.04-1.036 2.73-1.166 3.9-.26.65.39 1.04 1.166 1.04 1.943 0 .777-.26 1.554-.78 2.072l-28.6 29.786h-.65l-.931-3.879-.472-2.105L64.22 3.673zM20.8 7.429c-1.43 0-2.6 1.165-2.6 2.59v2.59h5.2v-2.59c0-1.425-1.17-2.59-2.6-2.59zM9.1 17.789c0-1.425 1.17-2.59 2.6-2.59h17.55c1.3 0 2.34.906 2.6 2.072l4.55 19.943H9.1V17.79zm28.6 32.375H9.1v3.886h41.86c.26 0 .39-.13.52-.26l4.68-13.079c.13-.259 0-.518 0-.518 0-.13-.26-.259-.52-.259H9.1v2.46h20.8c.78 0 1.3.519 1.3 1.296s-.52 1.294-1.3 1.294H9.1v2.59h28.6c.78 0 1.3.519 1.3 1.296s-.52 1.294-1.3 1.294zM2.6 60.524c0-2.2 1.69-3.884 3.9-3.884s3.9 1.683 3.9 3.885c0 2.201-1.69 3.885-3.9 3.885s-3.9-1.684-3.9-3.885zm49.4 0c0 2.202 1.69 3.886 3.9 3.886s3.9-1.684 3.9-3.885c0-2.202-1.69-3.885-3.9-3.885S52 58.323 52 60.525z"/><path fill-rule="evenodd" clip-rule="evenodd" d="M76.689 40.6l1.264 5.136c.126.385 0 .899-.38 1.155l-3.792 3.852c-.253.129-.505.257-.885.257h-.252l-6.321-1.284c-.506-.128-.885-.513-1.011-.899l-1.265-5.135c-.126-.386 0-.899.38-1.156l5.056-5.136c.38-.385 1.011-.513 1.517-.256l5.056 2.568c.38.128.633.513.633.898zm-9.102 6.676l4.93 1.028 2.781-2.825-1.011-3.852-3.666-1.926-3.919 3.98.885 3.596z"/></g></svg>
